X:5052
T:Gerry Crossey's Tune
M:6/8
R:Air
L:1/8
C:Aidan Crossey
K:C
[D2B2] c dB2|[D6B6g6]|[D2B2]c dB2|[F6A6]|[F3d3] [E3c3]|de d4|B G5:||
[D2B2] c dB2|[D6B6g6]|[DBg]a2 b2c'|ab ga ^fg|dcB AG2|[F4A4] [F2d2]|[E6c6]|de d4|B G5:||
